packages/vibrant-icons/assets/icons/HashtagSealCheck/Fill.svg

<svg width="24" height="24" viewBox="0 0 24 24" fill="none" xmlns="http://www.w3.org/2000/svg">
<path d="M10.5 2.25L9.84423 6.90002H15.5942L16.25 2.25H18.5L17.8442 6.90002H21.75L21.625 9.10002H17.534L17.266 11H15.016L15.284 9.10002H9.53397L8.71602 14.9H11.25V17.1H8.40577L7.75 21.75H5.5L6.15577 17.1H2.25L2.375 14.9H6.46602L7.28397 9.10002H3.125L3.25 6.90002H7.59423L8.25 2.25H10.5Z" fill="#0C0C0C"/>
<path fill-rule="evenodd" clip-rule="evenodd" d="M17.3177 12.2198C17.2205 12.2509 17.1359 12.3338 16.9667 12.4996L15.9251 13.5197L14.4673 13.5348C14.2304 13.5373 14.1119 13.5385 14.0212 13.5852C13.9413 13.6263 13.8763 13.6913 13.8352 13.7712C13.7885 13.8619 13.7873 13.9804 13.7848 14.2173L13.7697 15.6751L12.7496 16.7167C12.5838 16.8859 12.5009 16.9705 12.4698 17.0677C12.4424 17.1532 12.4424 17.2452 12.4698 17.3307C12.5009 17.4279 12.5838 17.5125 12.7496 17.6818L13.7697 18.7233L13.7848 20.1812C13.7873 20.4181 13.7885 20.5365 13.8352 20.6272C13.8763 20.7071 13.9413 20.7721 14.0212 20.8132C14.1119 20.8599 14.2304 20.8611 14.4673 20.8636L15.9251 20.8787L16.9667 21.8989C17.1359 22.0647 17.2205 22.1475 17.3177 22.1787C17.4032 22.2061 17.4952 22.2061 17.5807 22.1787C17.6779 22.1475 17.7625 22.0647 17.9318 21.8989L18.9733 20.8787L20.4312 20.8636C20.6681 20.8611 20.7865 20.8599 20.8772 20.8132C20.9571 20.7721 21.0221 20.7071 21.0632 20.6272C21.1099 20.5365 21.1111 20.4181 21.1136 20.1812L21.1287 18.7233L22.1489 17.6818C22.3147 17.5125 22.3975 17.4279 22.4287 17.3307C22.4561 17.2452 22.4561 17.1532 22.4287 17.0677C22.3975 16.9705 22.3146 16.8859 22.1489 16.7167L21.1287 15.6751L21.1136 14.2173C21.1111 13.9804 21.1099 13.8619 21.0632 13.7712C21.0221 13.6913 20.9571 13.6263 20.8772 13.5852C20.7865 13.5385 20.6681 13.5373 20.4312 13.5348L18.9733 13.5197L17.9318 12.4996C17.7625 12.3338 17.6779 12.2509 17.5807 12.2198C17.4952 12.1924 17.4032 12.1924 17.3177 12.2198ZM19.8802 16.5301L18.8195 15.4694L17.0999 17.1891L16.1302 16.2194L15.0695 17.2801L17.0999 19.3104L19.8802 16.5301Z" fill="#0C0C0C"/>
</svg>

<svg xmlns="http://www.w3.org/2000/svg" width="24" height="24" fill="none"><path fill="#0C0C0C" d="M10.5 2.25 9.844 6.9h5.75l.656-4.65h2.25l-.656 4.65h3.906l-.125 2.2h-4.091l-.268 1.9h-2.25l.268-1.9h-5.75l-.818 5.8h2.534v2.2H8.406l-.656 4.65H5.5l.656-4.65H2.25l.125-2.2h4.091l.818-5.8H3.125l.125-2.2h4.344l.656-4.65z"/><path fill="#0C0C0C" fill-rule="evenodd" d="M17.318 12.22c-.098.03-.182.114-.351.28l-1.042 1.02-1.458.015c-.237.002-.355.004-.446.05a.43.43 0 0 0-.186.186c-.046.09-.048.21-.05.446l-.015 1.458-1.02 1.042c-.166.169-.25.254-.28.35a.43.43 0 0 0 0 .264c.03.097.114.181.28.35l1.02 1.042.015 1.458c.002.237.004.355.05.446a.43.43 0 0 0 .186.186c.09.047.21.048.446.05l1.458.016 1.042 1.02c.169.166.254.248.35.28a.43.43 0 0 0 .264 0c.097-.031.181-.114.35-.28l1.042-1.02 1.458-.015c.237-.003.355-.004.446-.05a.43.43 0 0 0 .186-.187c.047-.09.048-.209.05-.446l.016-1.458 1.02-1.041c.166-.17.248-.254.28-.351a.43.43 0 0 0 0-.263c-.031-.098-.114-.182-.28-.351l-1.02-1.042-.015-1.458c-.003-.237-.004-.355-.05-.446a.43.43 0 0 0-.187-.186c-.09-.046-.209-.048-.446-.05l-1.458-.015-1.041-1.02c-.17-.166-.254-.25-.351-.28a.43.43 0 0 0-.263 0m2.562 4.31-1.06-1.06-1.72 1.72-.97-.97-1.06 1.06 2.03 2.03z" clip-rule="evenodd"/></svg>
